X:1
T: Lady Heathcote's Reel
C:
R:Reel
Q: 232
K:D
M:4/4
L:1/8
|:A|d2 a2 fg ag|fa df ce Ac|d2 af gb eg|fa ge fd dA|
d2 a2 fg ag|fa df ce Ac|d2 af gb eg|fa ge fd dA|
FA dF GE ed|cA ag fd dA|FD dF GE ed|cA Bc dd dA|
FA dF GE ed|cA ag fd dA|FA df Bd gb|af ge fd d:|
